!!!COM: Gioseffo Zarlino
!!!OPR: Le istitutioni harmoniche
!!!OTL: Canon at the unison after a minim with the cantus firmus as lowest voice.
!!!PPR: Francesco Senese
!!!PDT: 1573
!!!PPP: Venice
!!!ONB: Reprint ed., New York: Broude Bros., 1965.
!!!ONB: Transcribed from Gioseffo Zarlino, Le Istitutioni Harmoniche, 1558,
!!!ONB: translated as "The Art of Counterpoint" by Guy Marco and
!!!ONB: Claude Palisca; New York: W.W. Norton, 1968, p. 216.
**kern	**kern	**kern
*CF	*conseq	*guida
*k[]	*k[]	*k[]
*M4/2	*M4/2	*M4/2
=1-	=1-	=1-
1G	2r	2.dd
.	2.dd	.
.	.	4cc
1G	.	4b
.	4cc	4a
.	4b	4g
.	4a	4f
=2	=2	=2
1c	4g	2e
.	4f	.
.	2e	2.c
1A	2.c	.
.	.	4d
.	.	4e
.	4d	4f
=3	=3	=3
1G	4e	2g
.	4f	.
.	2g	2.e
1c	2.e	.
.	.	4f
.	.	4g
.	4f	4a
=4	=4	=4
1G	4g	2b
.	4a	.
.	2b	2e
1A	2e	2.cc
.	[2cc	.
.	.	4b
=5	=5	=5
1A	4cc]	4a
.	4b	8g
.	.	8f
.	4a	2.e
.	8g	.
.	8f	.
1c	2.e	.
.	.	4f
.	.	2g
.	4f	.
=6	=6	=6
1c	2g	4e
.	.	4f
.	4e	4g
.	4f	4a
1B	4g	4b
.	4a	4cc
.	4b	2dd
.	4cc	.
=7	=7	=7
1B	2dd	4b
.	.	4a
.	4b	4g
.	4a	4f
1c	4g	2e
.	4f	.
.	2e	[2g
=8	=8	=8
1G	2.g	4g]
.	.	4f
.	.	4e
.	4f	4d
1A	4e	2c
.	4d	.
.	2c	4e
.	.	4f
=9	=9	=9
[0G	4e	4g
.	4f	4a
.	4g	4b
.	4a	4cc
.	4b	2dd
.	4cc	.
.	2dd	2b
=10	=10	=10
0G]	0b	0dd
==	==	==
*-	*-	*-
!!!CDT: 1517/3/22-1590/2/14
!!!CNT: Italia
!!!ODT: <1573//
!!!YEP: David Huron and Denis Collins
!!!YEN: Canada
!!!AIN: vox; ?
!!!AST: polyphony
!!!RDT: 1995 July 3
!!!YED: 1995 August 31
!!!AFR: cantus firmus canon
!!!AMT: simple quadruple
!!!EEV: 1.0
